img/svg/soap-opera.svg

<svg xmlns="http://www.w3.org/2000/svg" preserveAspectRatio="xMidYMid" width="46" height="44" viewBox="0 0 46 44"><defs><style>.cls-2 { fill: #9ba9b0; }</style></defs><path d="M44.206 35.26l-.092.105-8.411 8.345c-.194.193-.449.29-.704.29-.255 0-.51-.097-.704-.291l-8.405-8.344-.089-.101c-1.162-1.141-1.8-2.649-1.8-4.265 0-3.309 2.691-6 6-6 2.085 0 3.925 1.069 5.001 2.686 1.076-1.617 2.915-2.686 5-2.686 3.307 0 5.997 2.692 5.997 6.001 0 1.617-.635 3.123-1.793 4.26zm-4.204-8.261c-2.206 0-4 1.794-4 4 0 .552-.447 1-1 1-.553 0-1-.448-1-1 0-2.206-1.795-4-4.001-4-2.206 0-4 1.794-4 4 0 1.111.457 2.148 1.287 2.921l.123.138 7.588 7.534 7.594-7.535.127-.141c.825-.769 1.279-1.804 1.279-2.916 0-2.206-1.793-4.001-3.997-4.001zm.972-21.345l-4.589 4.551c-.106.105-.244.158-.384.158-.139 0-.277-.053-.384-.158l-4.584-4.551-.048-.055c-.634-.623-.982-1.445-.982-2.326 0-1.805 1.468-3.273 3.273-3.273 1.137 0 2.14.583 2.727 1.465.587-.882 1.59-1.465 2.727-1.465 1.804 0 3.271 1.469 3.271 3.273 0 .882-.346 1.703-.978 2.323l-.049.058zm-2.244-3.654c-.426 0-.823.214-1.062.573l-1.665 2.502-1.665-2.502c-.239-.359-.636-.573-1.062-.573-.702 0-1.273.571-1.273 1.273 0 .342.132.652.383.898l.111.109.024.032 3.481 3.456 3.461-3.434.023-.031.136-.134c.248-.244.379-.553.379-.896 0-.702-.57-1.273-1.271-1.273zm-24.695 19.916c0-1.059.887-1.916 1.981-1.916s1.982.857 1.982 1.916c0 1.057-.888 1.914-1.982 1.914-1.094 0-1.981-.857-1.981-1.914zm7.035 9.082c.085.678.252 1.336.503 1.962l-.521.04c-3.23 0-6.198-1.993-7.938-5.331l1.774-.924c1.389 2.664 3.693 4.255 6.164 4.255l.018-.002zm3.95-10.998c1.094 0 1.981.857 1.981 1.916 0 1.057-.887 1.914-1.981 1.914-1.095 0-1.981-.857-1.981-1.914 0-1.059.886-1.916 1.981-1.916zm5.978-7.074c2.692 2.46 4.483 5.892 4.813 9.742-.647.281-1.256.645-1.809 1.089l-.142-.105c-.079-3.395-1.478-6.465-3.694-8.732-.631.998-1.65 2.08-3.165 2.08-.88 0-1.579-.165-2.14-.297-.897-.211-.968-.181-1.153.004-.74.741-1.506 1.041-2.325 1.041-.872 0-1.804-.341-2.829-.854-1.029-.514-1.644-1.063-2.012-1.546l-1.094.546c-2.047 1.025-4.047.355-4.679.094-1.728 2.199-2.768 4.963-2.768 7.97 0 7.133 5.804 12.936 12.937 12.936 1.118 0 2.197-.157 3.232-.424l1.617 1.604c-1.522.523-3.149.82-4.849.82-8.249 0-14.937-6.687-14.937-14.936 0-8.25 6.688-14.938 14.937-14.938 3.362 0 6.458 1.116 8.952 2.991.14-.016.284-.008.427.04.394.132.652.485.681.875zm-10.06-1.906c-3.324 0-6.35 1.271-8.644 3.34.601.118 1.437.157 2.26-.255l2-1c.309-.154.677-.138.973.044.267.166.44.447.47.757.027.081.247.597 1.451 1.199 1.925.963 2.335.698 2.846.188 1.012-1.013 2.13-.75 3.027-.537.508.12 1.032.244 1.68.244.679 0 1.26-.747 1.634-1.413-2.152-1.605-4.81-2.567-7.697-2.567zm-9.966-1.366l-4.589 4.551c-.106.105-.244.158-.384.158-.139 0-.277-.053-.384-.158l-4.584-4.551-.048-.055c-.634-.623-.982-1.445-.982-2.326 0-1.805 1.468-3.273 3.273-3.273 1.137 0 2.14.583 2.727 1.465.587-.882 1.59-1.465 2.727-1.465 1.804 0 3.271 1.469 3.271 3.273 0 .882-.346 1.703-.978 2.323l-.049.058zm-2.244-3.654c-.426 0-.823.214-1.062.573l-1.665 2.502-1.665-2.502c-.239-.359-.636-.573-1.062-.573-.702 0-1.273.571-1.273 1.273 0 .342.132.652.383.898l.111.109.024.032 3.48 3.457 3.462-3.435.023-.031.136-.134c.248-.244.379-.553.379-.896 0-.702-.57-1.273-1.271-1.273z" id="path-1" class="cls-2" fill-rule="evenodd"/></svg>

<svg xmlns="http://www.w3.org/2000/svg" xmlns:xlink="http://www.w3.org/1999/xlink" preserveAspectRatio="xMidYMid" width="46" height="44" viewBox="0 0 46 44">
  <defs>
    <style>

      .cls-2 {
        fill: #9ba9b0;
      }
    </style>
  </defs>
  <path d="M44.206,35.260 C44.179,35.297 44.147,35.332 44.114,35.365 C44.114,35.365 35.703,43.710 35.703,43.710 C35.509,43.903 35.254,44.000 34.999,44.000 C34.744,44.000 34.489,43.903 34.295,43.709 C34.295,43.709 25.890,35.365 25.890,35.365 C25.857,35.333 25.827,35.299 25.801,35.264 C24.639,34.123 24.001,32.615 24.001,30.999 C24.001,27.690 26.692,24.999 30.001,24.999 C32.086,24.999 33.926,26.068 35.002,27.685 C36.078,26.068 37.917,24.999 40.002,24.999 C43.309,24.999 45.999,27.691 45.999,31.000 C45.999,32.617 45.364,34.123 44.206,35.260 ZM40.002,26.999 C37.796,26.999 36.002,28.793 36.002,30.999 C36.002,31.551 35.555,31.999 35.002,31.999 C34.449,31.999 34.002,31.551 34.002,30.999 C34.002,28.793 32.207,26.999 30.001,26.999 C27.795,26.999 26.001,28.793 26.001,30.999 C26.001,32.110 26.458,33.147 27.288,33.920 C27.334,33.962 27.375,34.008 27.411,34.058 C27.411,34.058 34.999,41.592 34.999,41.592 C34.999,41.592 42.593,34.057 42.593,34.057 C42.631,34.006 42.673,33.959 42.720,33.916 C43.545,33.147 43.999,32.112 43.999,31.000 C43.999,28.794 42.206,26.999 40.002,26.999 ZM40.974,5.654 C40.974,5.654 36.385,10.205 36.385,10.205 C36.279,10.310 36.141,10.363 36.001,10.363 C35.862,10.363 35.724,10.310 35.617,10.205 C35.617,10.205 31.033,5.654 31.033,5.654 C31.016,5.636 30.999,5.618 30.985,5.599 C30.351,4.976 30.003,4.154 30.003,3.273 C30.003,1.468 31.471,-0.000 33.276,-0.000 C34.413,-0.000 35.416,0.583 36.003,1.465 C36.590,0.583 37.593,-0.000 38.730,-0.000 C40.534,-0.000 42.001,1.469 42.001,3.273 C42.001,4.155 41.655,4.976 41.023,5.596 C41.009,5.617 40.992,5.636 40.974,5.654 ZM38.730,2.000 C38.304,2.000 37.907,2.214 37.668,2.573 C37.668,2.573 36.003,5.075 36.003,5.075 C36.003,5.075 34.338,2.573 34.338,2.573 C34.099,2.214 33.702,2.000 33.276,2.000 C32.574,2.000 32.003,2.571 32.003,3.273 C32.003,3.615 32.135,3.925 32.386,4.171 C32.386,4.171 32.497,4.280 32.497,4.280 C32.497,4.280 32.521,4.312 32.521,4.312 C32.521,4.312 36.002,7.768 36.002,7.768 C36.002,7.768 39.463,4.334 39.463,4.334 C39.463,4.334 39.486,4.303 39.486,4.303 C39.486,4.303 39.622,4.169 39.622,4.169 C39.870,3.925 40.001,3.616 40.001,3.273 C40.001,2.571 39.431,2.000 38.730,2.000 ZM14.035,21.916 C14.035,20.857 14.922,20.000 16.016,20.000 C17.110,20.000 17.998,20.857 17.998,21.916 C17.998,22.973 17.110,23.830 16.016,23.830 C14.922,23.830 14.035,22.973 14.035,21.916 ZM21.070,30.998 C21.155,31.676 21.322,32.334 21.573,32.960 C21.399,32.972 21.228,33.000 21.052,33.000 C17.822,33.000 14.854,31.007 13.114,27.669 C13.114,27.669 14.888,26.745 14.888,26.745 C16.277,29.409 18.581,31.000 21.052,31.000 C21.058,31.000 21.064,30.998 21.070,30.998 ZM25.020,20.000 C26.114,20.000 27.001,20.857 27.001,21.916 C27.001,22.973 26.114,23.830 25.020,23.830 C23.925,23.830 23.039,22.973 23.039,21.916 C23.039,20.857 23.925,20.000 25.020,20.000 ZM30.998,12.926 C33.690,15.386 35.481,18.818 35.811,22.668 C35.164,22.949 34.555,23.313 34.002,23.757 C33.956,23.720 33.907,23.688 33.860,23.652 C33.781,20.257 32.382,17.187 30.166,14.920 C29.535,15.918 28.516,17.000 27.001,17.000 C26.121,17.000 25.422,16.835 24.861,16.703 C23.964,16.492 23.893,16.522 23.708,16.707 C22.968,17.448 22.202,17.748 21.383,17.748 C20.511,17.748 19.579,17.407 18.554,16.894 C17.525,16.380 16.910,15.831 16.542,15.348 C16.542,15.348 15.448,15.894 15.448,15.894 C13.401,16.919 11.401,16.249 10.769,15.988 C9.041,18.187 8.001,20.951 8.001,23.958 C8.001,31.091 13.805,36.894 20.938,36.894 C22.056,36.894 23.135,36.737 24.170,36.470 C24.170,36.470 25.787,38.074 25.787,38.074 C24.265,38.597 22.638,38.894 20.938,38.894 C12.689,38.894 6.001,32.207 6.001,23.958 C6.001,15.708 12.689,9.020 20.938,9.020 C24.300,9.020 27.396,10.136 29.890,12.011 C30.030,11.995 30.174,12.003 30.317,12.051 C30.711,12.183 30.969,12.536 30.998,12.926 ZM20.938,11.020 C17.614,11.020 14.588,12.291 12.294,14.360 C12.895,14.478 13.731,14.517 14.554,14.105 C14.554,14.105 16.554,13.105 16.554,13.105 C16.863,12.951 17.231,12.967 17.527,13.149 C17.794,13.315 17.967,13.596 17.997,13.906 C18.024,13.987 18.244,14.503 19.448,15.105 C21.373,16.068 21.783,15.803 22.294,15.293 C23.306,14.280 24.424,14.543 25.321,14.756 C25.829,14.876 26.353,15.000 27.001,15.000 C27.680,15.000 28.261,14.253 28.635,13.587 C26.483,11.982 23.825,11.020 20.938,11.020 ZM10.972,9.654 C10.972,9.654 6.383,14.205 6.383,14.205 C6.277,14.310 6.139,14.363 5.999,14.363 C5.860,14.363 5.722,14.310 5.615,14.205 C5.615,14.205 1.031,9.654 1.031,9.654 C1.014,9.636 0.997,9.618 0.983,9.599 C0.349,8.976 0.001,8.154 0.001,7.273 C0.001,5.468 1.469,4.000 3.274,4.000 C4.411,4.000 5.414,4.583 6.001,5.465 C6.588,4.583 7.591,4.000 8.728,4.000 C10.532,4.000 11.999,5.469 11.999,7.273 C11.999,8.155 11.653,8.976 11.021,9.596 C11.007,9.617 10.990,9.636 10.972,9.654 ZM8.728,6.000 C8.302,6.000 7.905,6.214 7.666,6.573 C7.666,6.573 6.001,9.075 6.001,9.075 C6.001,9.075 4.336,6.573 4.336,6.573 C4.097,6.214 3.700,6.000 3.274,6.000 C2.572,6.000 2.001,6.571 2.001,7.273 C2.001,7.615 2.133,7.925 2.384,8.171 C2.384,8.171 2.495,8.280 2.495,8.280 C2.495,8.280 2.519,8.312 2.519,8.312 C2.519,8.312 5.999,11.769 5.999,11.769 C5.999,11.769 9.461,8.334 9.461,8.334 C9.461,8.334 9.484,8.303 9.484,8.303 C9.484,8.303 9.620,8.169 9.620,8.169 C9.868,7.925 9.999,7.616 9.999,7.273 C9.999,6.571 9.429,6.000 8.728,6.000 Z" id="path-1" class="cls-2" fill-rule="evenodd"/>
</svg>
